Desktop/project_createx/public/images/decor/lines-right.svg

<svg width="124" height="26" viewBox="0 0 124 26" fill="none" xmlns="http://www.w3.org/2000/svg">
<g opacity="0.4">
<path d="M24.4831 0.0389743L0 24.4316L1.57426 26.0005L26.0574 1.60786L24.4831 0.0389743Z" fill="white"/>
<path d="M48.967 0.0272548L24.4873 24.4199L26.0616 25.9886L50.5412 1.59591L48.967 0.0272548Z" fill="white"/>
<path d="M73.4533 0.0140381L48.9736 24.4102L50.5481 25.9788L75.0278 1.5827L73.4533 0.0140381Z" fill="white"/>
<path d="M97.9377 0.0057704L73.458 24.3984L75.0323 25.9671L99.512 1.57443L97.9377 0.0057704Z" fill="white"/>
<path d="M122.426 -8.89701e-05L97.9463 24.3926L99.5205 25.9612L124 1.56857L122.426 -8.89701e-05Z" fill="white"/>
</g>
</svg>

<svg xmlns="http://www.w3.org/2000/svg" width="124" height="26" fill="none"><g fill="#fff" opacity=".4"><path d="M24.483.039 0 24.432 1.574 26 26.057 1.607zM48.967.027 24.487 24.42l1.575 1.569 24.48-24.393zM73.453.014 48.973 24.41l1.575 1.569 24.48-24.396zM97.938.006l-24.48 24.392 1.574 1.57 24.48-24.394zM122.426 0l-24.48 24.393 1.575 1.568L124 1.57z"/></g></svg>
